svg/map/clock_fill.svg

<?xml version="1.0" encoding="UTF-8"?>
<svg width="24px" height="24px" viewBox="0 0 24 24" version="1.1" xmlns="http://www.w3.org/2000/svg" xmlns:xlink="http://www.w3.org/1999/xlink">
    <title>clock_fill</title>
    <g id="页面-1" stroke="none" stroke-width="1" fill="none" fill-rule="evenodd">
        <g id="Map" transform="translate(-672.000000, -48.000000)">
            <g id="clock_fill" transform="translate(672.000000, 48.000000)">
                 <path d="M24,0 L24,24 L0,24 L0,0 L24,0 Z M12.5934901,23.257841 L12.5819402,23.2595131 L12.5108777,23.2950439 L12.4918791,23.2987469 L12.4918791,23.2987469 L12.4767152,23.2950439 L12.4056548,23.2595131 C12.3958229,23.2563662 12.3870493,23.2590235 12.3821421,23.2649074 L12.3780323,23.275831 L12.360941,23.7031097 L12.3658947,23.7234994 L12.3769048,23.7357139 L12.4804777,23.8096931 L12.4953491,23.8136134 L12.4953491,23.8136134 L12.5071152,23.8096931 L12.6106902,23.7357139 L12.6232938,23.7196733 L12.6232938,23.7196733 L12.6266527,23.7031097 L12.609561,23.275831 C12.6075724,23.2657013 12.6010112,23.2592993 12.5934901,23.257841 L12.5934901,23.257841 Z M12.8583906,23.1452862 L12.8445485,23.1473072 L12.6598443,23.2396597 L12.6498822,23.2499052 L12.6498822,23.2499052 L12.6471943,23.2611114 L12.6650943,23.6906389 L12.6699349,23.7034178 L12.6699349,23.7034178 L12.678386,23.7104931 L12.8793402,23.8032389 C12.8914285,23.8068999 12.9022333,23.8029875 12.9078286,23.7952264 L12.9118235,23.7811639 L12.8776777,23.1665331 C12.8752882,23.1545897 12.8674102,23.1470016 12.8583906,23.1452862 L12.8583906,23.1452862 Z M12.1430473,23.1473072 C12.1332178,23.1423925 12.1221763,23.1452606 12.1156365,23.1525954 L12.1099173,23.1665331 L12.0757714,23.7811639 C12.0751323,23.7926639 12.0828099,23.8018602 12.0926481,23.8045676 L12.108256,23.8032389 L12.3092106,23.7104931 L12.3186497,23.7024347 L12.3186497,23.7024347 L12.3225043,23.6906389 L12.340401,23.2611114 L12.337245,23.2485176 L12.337245,23.2485176 L12.3277531,23.2396597 L12.1430473,23.1473072 Z" id="MingCute" fill-rule="nonzero"></path>
                <path d="M12,2 C16.9706,2 21,6.02944 21,11 C21,14.0738 19.3241,16.5892 17.5584,18.3945 C16.5896727,19.3848818 15.5596562,20.1973165 14.6817052,20.8113077 L14.2563896,21.1016714 C14.1879449,21.1472775 14.1208032,21.1914819 14.0550879,21.2342726 L13.6789009,21.4739579 L13.6789009,21.4739579 L13.3428744,21.6791459 L13.3428744,21.6791459 L12.9271,21.921 L12.9271,21.921 C12.3479,22.2481 11.6521,22.2481 11.0729,21.921 L10.6571257,21.6791459 L10.6571257,21.6791459 L10.1376557,21.3583918 C10.0749168,21.3184403 10.010628,21.2770633 9.94491277,21.2342726 L9.53449244,20.9606593 C8.61244219,20.3314866 7.49106273,19.4674136 6.44162,18.3945 C4.6759,16.5892 3,14.0738 3,11 C3,6.02944 7.02944,2 12,2 Z M15.0793,7.98261 L10.8348,12.2271 L9.06698,10.4594 C8.67646,10.0689 8.04329,10.0689 7.65277,10.4594 C7.26225,10.8499 7.26225,11.4831 7.65277,11.8736 L10.0569,14.2778 C10.4865,14.7073 11.183,14.7073 11.6126,14.2778 L16.4935,9.39682 C16.884,9.0063 16.884,8.37314 16.4935,7.98261 C16.103,7.59209 15.4698,7.59209 15.0793,7.98261 Z" id="形状" fill="#09244B"></path>
            </g>
        </g>
    </g>
</svg>

<svg xmlns="http://www.w3.org/2000/svg" width="24" height="24"><g fill="none" fill-rule="evenodd"><path d="M24 0v24H0V0h24ZM12.593 23.258l-.011.002-.071.035-.02.004-.014-.004-.071-.035c-.01-.004-.019-.001-.024.005l-.004.01-.017.428.005.02.01.013.104.074.015.004.012-.004.104-.074.012-.016.004-.017-.017-.427c-.002-.01-.009-.017-.017-.018Zm.265-.113-.013.002-.185.093-.01.01-.003.011.018.43.005.012.008.007.201.093c.012.004.023 0 .029-.008l.004-.014-.034-.614c-.003-.012-.01-.02-.02-.022Zm-.715.002a.023.023 0 0 0-.027.006l-.006.014-.034.614c0 .012.007.02.017.024l.015-.002.201-.093.01-.008.004-.011.017-.43-.003-.012-.01-.01-.184-.092Z"/><path fill="#09244B" d="M12 2a9 9 0 0 1 9 9c0 3.074-1.676 5.59-3.442 7.395a20.441 20.441 0 0 1-2.876 2.416l-.426.29-.2.133-.377.24-.336.205-.416.242a1.874 1.874 0 0 1-1.854 0l-.416-.242-.52-.32-.192-.125-.41-.273a20.638 20.638 0 0 1-3.093-2.566C4.676 16.589 3 14.074 3 11a9 9 0 0 1 9-9Zm3.08 5.983-4.245 4.244-1.768-1.768a1 1 0 0 0-1.414 1.415l2.404 2.404a1.1 1.1 0 0 0 1.556 0l4.88-4.881a1 1 0 0 0-1.414-1.414Z"/></g></svg>
